X:1
T:Standin In The Need of Prayer
T:Did not old pharaoh get lost?
T:Copyright 1881 by The Riverside Press
T:Rodeheaver's Plantation Melodies
T:Rodeheaver's Plantation Melodies
Z:Rodeheaver's Plantation Melodies
%%score [ 1 2 3 4 ]
L:1/8
Q:1/4=100
M:4/4
K:F
V:1 treble nm="Soprano" snm="S."
V:2 treble nm="Alto" snm="A."
V:3 bass nm="Tenor" snm="T."
V:4 bass nm="Bass" snm="B."
V:1
 (d3 c) | c2 A2 A2 F2 | F2 F2 F3 D | F2 F2 G2 F2 | A4 (d3 c) | c2 A2 A2 F2 | F2 F2 F2 F2 | %7
w: I- *|saac a ran- som,|while he lay up-|on the al- tar|bound. Mo- *|ses, an in- fant|cast a way by|
 FF F2 C2 E2 | F6 |: F2 | F2 F2 FF F2 | A6 F2 | G6 A2 | F6 F2 | F2 F2 FF F2 | A6 FF | (G6 A2) | %17
w: pha- * raoh's daugh- ter|found.|||||||||
 F4 :| %18
w: |
V:2
 z4 | z8 | z8 | z8 | z8 | z8 | z8 | z8 | z6 |: F2 | F2 F2 FF F2 | F6 F2 | E6 E2 | F6 F2 | %14
w: |||||||||Did|not old pha- raoh get|lost, get|lost, get|lost. Did|
 F2 F2 FF F2 | F6 FF | E8 | F4 :| %18
w: not old pha- raoh get|lost in the|red|sea?|
V:3
 z4 | z8 | z8 | z8 | z8 | z8 | z8 | z8 | z6 |: A,2 | A,2 A,2 A,A, A,2 | C6 A,2 | C6 C2 | A,6 A,2 | %14
 A,2 A,2 A,A, A,2 | C6 A,A, | (B,6 C2) | A,4 :| %18
V:4
 z4 | z8 | z8 | z8 | z8 | z8 | z8 | z8 | z6 |: F,2 | F,2 F,2 F,F, F,2 | F,6 F,2 | C,6 C,2 | %13
 F,6 F,2 | F,2 F,2 F,F, F,2 | F,6 F,F, | C,8 | F,4 :| %18

